X: 1257
T: Kimseye Etmem Şikâyet
C: Kemânî Sarkis Efendi
O: Turkey
F: http://compmusic.upf.edu/node/140
N: nihavent--sarki--kapali_curcuna--kimseye_etmem--kemani_sarkis_efendi
N: makam= nihavent
N: form= sarki
N: usul= kapali_curcuna = 10/8
M: 10/8
L: 1/16
K: C _B _e  
Q: 1/4=204
%%MIDI tuningsystem comma53
e6e4e2 d2c2 B2c2  | d8-d2d2 c2B2 A2G2  | \
w:  ARANAĞME  |   | 
G2^F2 G2A2 B2c2 d2e2 d2c2  | 
w:   | 
d4 e2d2 c2B2 c2d6  | e8-e2e2 d2c2 B2c2  | \
w:   |   | 
d4 d2d4d2 c2B2 A2G2  | 
w:   | 
A4 e2d2 c2B2 A2G4^F2  | G8-G2G2 ^F2G6  | \
w:   |   | 
e6e4e2 d2c2 B2c2  | d8-d2d2 c2B2 A2G2  | 
w:  ARANAĞME  |   | 
G2^F2 G2A2 B2c2 d2e2 d2c2  | d4 e2d2 c2B2 c2d6  | \
w:   |   | 
e8-e2e2 d2c2 B2c2  | 
w:   | 
d4 d2d4d2 c2B2 A2G2  | A4 e2d2 c2B2 A2G4^F2  | \
w:   |   | 
G8-G2G2 ^F2G6  | 
w:   | 
G6d4^c2 d2e4d2  | d16-d4  | c6d2 e2d2 c2B2 A2G2  | A16-A4  | \
w:  Kim se ye   |  et  |  mem  şi *  kâ  |  yet   | 
e6e4e2 d2d4c2  | 
w:  ağ la rım  *  ben   | 
c4 B2c4d8-d2  | d4 e2d2 c2B2 A2G6  | \
w:  ha *  li me    |  SAZ  | 
G6d4^c2 d2e4d2  | d16-d4  | c6d2 e2d2 c2B2 A2G2  | 
w:  Kim se ye   |  et  |  mem  şi *  kâ  | 
A16-A4  | e6e4e2 d2d4c2  | c4 B2c4d8-d2  | \
w:  yet   |  ağ la rım  *  ben   |  ha *  li me    | 
d4 e2d2 c2B2 c2d6  | d6g4^f2 g2a4g2  | 
w:  SAZ  |  Tit re rim   | 
g8-g2g2 f2e2 d2c2  | c6d2 e2d2 c2B2 A2G2  | \
w:  müc  |  rim  gi *  bi   | 
A8-A2A2 B2c2 d4  | 
w:  bak  | 
B4 A2G4e4d4c2  | c4 B2c4d8-d2  | d4 e2d2 c2B2 c2d6  | \
w:  tık *  ça  is tik  |  ba *  li me    |  SAZ  | 
d6g4^f2 g2a4g2  | 
w:  Tit re rim   | 
g8-g2g2 f2e2 d2c2  | c6d2 e2d2 c2B2 A2G2  | \
w:  müc  |  rim  gi *  bi   | 
A8-A2A2 B2c2 d4  | 
w:  bak  | 
B4 A2G4e4d4c2  | B4 A2G2 ^F2G8-G2  | \
w:  tık *  ça  is tik  |  ba *  li *  me    | 
d4 b2a2 g2a2 f2g4z2  | f6g4f2 g2a4g2  | 
w:  SAZ  |  Per de  i   | 
g8-g2g2 a2{g}f2 _1/4e2d2  | a4 g2g2 f2f2 _1/4e2e4d2  | d16-d4  | \
w:  zul  |  met  *  çe *  kil  |  miş   | 
e6e4e2 d2d4c2  | 
w:  kor ka rım  *  ik  | 
f2g2 a2{b}a2 g2g2 f2g6  | d4 b2a2 g2a2 f2g4z2  | \
w:  ba *  *  *  li *  me    |  SAZ  | 
f6g4f2 g2a4g2  | 
w:  Per de  i   | 
g8-g2g2 a2{g}f2 _1/4e2d2  | a4 g2g2 f2f2 _1/4e2e4d2  | d16-d4  | \
w:  zul  |  met  *  çe *  kil  |  miş   | 
e6e4e2 d2d4c2  | 
w:  kor ka rım  *  ik  | 
c4 B2c2 d2d8-d2  | d4 e2d2 c2B2 c2d6  | \
w:  ba *  li *  me    |  SAZ  | 
d6g4^f2 g2a4g2  | g8-g2g2 f2e2 d2c2  | 
w:  Tit re rim   |  müc  | 
c6d2 e2d2 c2B2 A2G2  | A8-A2A2 B2c2 d4  | \
w:  rim  gi *  bi   |  bak  | 
B4 A2G4e4d4c2  | c4 B2c4d8-d2  | 
w:  tık *  ça  is tik  |  ba *  li me    | 
d4 e2d2 c2B2 c2d6  | d6g4^f2 g2a4g2  | \
w:  SAZ  |  Tit re rim   | 
g8-g2g2 f2e2 d2c2  | c6d2 e2d2 c2B2 A2G2  | 
w:  müc  |  rim  gi *  bi   | 
A8-A2A2 B2c2 d4  | B4 A2G4e4d4c2  | B4 A2G2 ^F2G8-G2  | |


